src/icons/webcam-new.svg

<svg xmlns="http://www.w3.org/2000/svg" width="512" height="512" viewBox="0 0 512 512">
    <path d="M425.9 244.9c0-7.8-5.2-11.3-11.7-7.7-23.5 13.3-47 26.7-70.6 39.8-3.8 2.1-5.4 5-5.4 9.4.1 22.5.1 45.1 0 67.5 0 4 1.6 6.7 5.1 8.6 23.4 13.2 46.8 26.5 70.1 39.6 7.2 4 12.4 1.1 12.4-7.2.2-24.9.2-50 .1-74.9v-75.1zm-134.3-23c-37.6.1-159.3-.1-182.4.2-11.3.1-20.2 7.2-22.4 17.6-.9 3.6-.7 7.7-.7 11.5v142.1c0 14.8 9.5 24.4 24.2 24.5 30.5.1 61 0 91.5 0v.1H294c14.3 0 24-10 24-24.3V247.9c.1-16.9-9.4-26-26.4-26zM416 119.8V81.1h-43v38.7h-38.6v43H373v38.6h43v-38.6h38.7v-43H416z"/>
</svg>

<?xml version="1.0" encoding="UTF-8"?>
<svg width="512px" height="512px" viewBox="0 0 512 512" version="1.1" xmlns="http://www.w3.org/2000/svg" xmlns:xlink="http://www.w3.org/1999/xlink">
    <!-- Generator: Sketch 62 (91390) - https://sketch.com -->
    <title>webcam-new</title>
    <desc>Created with Sketch.</desc>
    <g id="webcam-new" stroke="none" stroke-width="1" fill="none" fill-rule="evenodd">
        <path d="M425.9,244.9 C425.9,237.1 420.7,233.6 414.2,237.2 C390.7,250.5 367.2,263.9 343.6,277 C339.8,279.1 338.2,282 338.2,286.4 C338.3,308.9 338.3,331.5 338.2,353.9 C338.2,357.9 339.8,360.6 343.3,362.5 C366.7,375.7 390.1,389 413.4,402.1 C420.6,406.1 425.8,403.2 425.8,394.9 C426,370 426,344.9 425.9,320 L425.9,244.9 L425.9,244.9 Z M291.6,221.9 C254,222 132.3,221.8 109.2,222.1 C97.9,222.2 89,229.3 86.8,239.7 C85.9,243.3 86.1,247.4 86.1,251.2 L86.1,393.3 C86.1,408.1 95.6,417.7 110.3,417.8 C140.8,417.9 171.3,417.8 201.8,417.8 L201.8,417.9 L294,417.9 C308.3,417.9 318.000782,407.9 318.000782,393.6 L318.000782,247.9 C318.1,231 308.6,221.9 291.6,221.9 L291.6,221.9 Z M416,119.8 L416,81.1 L373,81.1 L373,119.8 L334.4,119.8 L334.4,162.8 L373,162.8 L373,201.4 L416,201.4 L416,162.8 L454.7,162.8 L454.7,119.8 L416,119.8 Z" id="Shape" fill="#000000" fill-rule="nonzero"></path>
    </g>
</svg>
